static/img/underline.svg

<svg viewBox="0 0 64.58 7.11" xmlns="http://www.w3.org/2000/svg"><path d="m.06 6.92a71.31 71.31 0 0 1 7.74-2.65c1.3-.41 2.63-.71 4-1.06s2.66-.6 4-.9a118.76 118.76 0 0 1 16.2-1.98 138.15 138.15 0 0 1 16.33-.17 113 113 0 0 1 16.17 2.08.1.1 0 0 1 .08.12.1.1 0 0 1 -.12.08 112.35 112.35 0 0 0 -16.17-1.28 136.85 136.85 0 0 0 -16.17.77c-5.37.58-10.68 1.51-16 2.35s-10.65 1.82-16 2.83a.1.1 0 0 1 -.12-.11.1.1 0 0 1 .06-.08z" fill="#ffb900"/></svg>

<svg xmlns="http://www.w3.org/2000/svg" viewBox="0 0 64.58 7.11"><defs><style>.a{fill:#ffb900;}</style></defs><title>underline</title><path class="a" d="M.06,6.92A71.31,71.31,0,0,1,7.8,4.27c1.3-.41,2.63-.71,4-1.06s2.66-.6,4-.9A118.76,118.76,0,0,1,32,.33,138.15,138.15,0,0,1,48.33.16,113,113,0,0,1,64.5,2.24a.1.1,0,0,1,.08.12.1.1,0,0,1-.12.08A112.35,112.35,0,0,0,48.29,1.16a136.85,136.85,0,0,0-16.17.77c-5.37.58-10.68,1.51-16,2.35S5.47,6.1.12,7.11A.1.1,0,0,1,0,7,.1.1,0,0,1,.06,6.92Z"/></svg>
